X:49
T:Buff Coat Has No Fellow. HA.048, The
T:She Wants A Fellow,aka. HA.048
T:Retreat,aka. HA.048, The
M:6/4
L:1/4
Q:3/4=120
S:Henry Atkinson’s original MS,Hartburn,N’umberland,1694.
O:England
A:Hartburn,Northumberland
N:Title has been added in pencil in a later hand.cf Playford DM eds
N:4+(1670).CGP
H:1/4
Z:vmp.Chris Partington.Jan.2004
K:D
“^u”(B/c/)|d2A “^cr”F>ED|Eed “^ii”c2(B/c/)|d2AF2E|FD2D2||
“^d”B/c/|dcd Bcd|ede c>BA|dcd ede|f3a3|
f>ef Bcd|ede c>Bc|d2AF2E|FD2-D2|]

